X: 32266
T: Pickett And The Rosette Compass
R: jig
M: 6/8
K: Gmajor
|:GFG BAG|GFG BAG|GFG ABd|g2g edB|
CEG ceg|DFA cfa|ged BAF|G4DE:|
|:G,B,D GBd|ged BAG|A,CE GAB|c4BA|
B,DG Bdf|ged BAG|CEG ceg|DFA dfa:|

